;FLAVOR:Marlin
;TIME:12647
;Filament used: 25.1063m
;Layer height: 0.32
;MINX:99
;MINY:41.5
;MINZ:0.32
;MAXX:136
;MAXY:193.5
;MAXZ:144.96
;Generated with Cura_SteamEngine 4.13.1
M140 S50
M105
M190 S50
M104 S200
M105
M109 S200
M82 ;absolute extrusion mode
; Ender 3 Custom Start G-code
G92 E0 ; Reset Extruder
G28 ; Home all axes
G1 Z2.0 F3000 ; Move Z Axis up little to prevent scratching of Heat Bed
G1 X0.1 Y20 Z0.3 F5000.0 ; Move to start position
G1 X0.1 Y200.0 Z0.3 F1500.0 E15 ; Draw the first line
G1 X0.4 Y200.0 Z0.3 F5000.0 ; Move to side a little
G1 X0.4 Y20 Z0.3 F1500.0 E30 ; Draw the second line
G92 E0 ; Reset Extruder
G1 Z2.0 F3000 ; Move Z Axis up little to prevent scratching of Heat Bed
G1 X5 Y20 Z0.3 F5000.0 ; Move over to prevent blob squish
G92 E0
G92 E0
G1 F2700 E-5
;LAYER_COUNT:453
;LAYER:0
M107
G0 F6000 X106.981 Y48.563 Z0.32
;TYPE:SKIRT
G1 F2700 E0
G1 F1200 X107.42 Y47.688 E0.10419
G1 X107.93 Y46.851 E0.20851
G1 X108.507 Y46.059 E0.3128
G1 X109.146 Y45.317 E0.41702
G1 X109.843 Y44.629 E0.52126
G1 X110.594 Y44 E0.62552
G1 X111.394 Y43.435 E0.72976
G1 X112.238 Y42.937 E0.83406
G1 X113.119 Y42.509 E0.93831
G1 X114.032 Y42.154 E1.04257
G1 X114.971 Y41.875 E1.14683
G1 X115.93 Y41.674 E1.25112
G1 X116.902 Y41.552 E1.35538
G1 X117.576 Y41.514 E1.42723
G1 X117.895 Y41.505 E1.46119
G1 X118.233 Y41.5 E1.49717
G1 X123.293 Y41.5 E2.03572
G1 X124.163 Y41.511 E2.12832
G1 X125.141 Y41.565 E2.23257
G1 X126.111 Y41.699 E2.33679
G1 X127.068 Y41.911 E2.44112
G1 X128.004 Y42.201 E2.54541
G1 X128.913 Y42.566 E2.64967
G1 X129.789 Y43.004 E2.75391
G1 X130.627 Y43.512 E2.8582
G1 X131.42 Y44.086 E2.9624
G1 X132.164 Y44.723 E3.06664
G1 X132.853 Y45.419 E3.17088
G1 X133.484 Y46.169 E3.27519
G1 X134.051 Y46.968 E3.37947
G1 X134.551 Y47.81 E3.48369
G1 X134.981 Y48.69 E3.58794
G1 X135.337 Y49.603 E3.69224
G1 X135.618 Y50.541 E3.79645
G1 X135.821 Y51.5 E3.90079
G1 X135.946 Y52.471 E4.00498
G1 X135.986 Y53.173 E4.07982
G1 X135.995 Y53.493 E4.11389
G1 X136 Y53.83 E4.14976
G1 X135.999 Y180.913 E17.67552
G1 X135.99 Y181.64 E17.7529
G1 X135.938 Y182.618 E17.85714
G1 X135.806 Y183.588 E17.96133
G1 X135.596 Y184.545 E18.06561
G1 X135.308 Y185.482 E18.16994
G1 X134.945 Y186.391 E18.27412
G1 X134.509 Y187.268 E18.37836
G1 X134.002 Y188.107 E18.48269
G1 X133.429 Y188.902 E18.58699
G1 X132.794 Y189.647 E18.69118
G1 X132.099 Y190.338 E18.79549
G1 X131.35 Y190.969 E18.89972
G1 X130.553 Y191.538 E19.00395
G1 X129.711 Y192.04 E19.10828
G1 X128.832 Y192.471 E19.21248
G1 X127.92 Y192.829 E19.31676
G1 X126.982 Y193.112 E19.42104
G1 X126.024 Y193.317 E19.52531
G1 X125.053 Y193.444 E19.62953
G1 X124.327 Y193.486 E19.70693
G1 X124.006 Y193.495 E19.74111
G1 X123.67 Y193.5 E19.77687
G1 X118.455 Y193.499 E20.33192
G1 X117.757 Y193.49 E20.40622
G1 X116.779 Y193.437 E20.51046
G1 X115.808 Y193.305 E20.61476
G1 X114.852 Y193.094 E20.71895
G1 X113.916 Y192.806 E20.82318
G1 X113.006 Y192.442 E20.9275
G1 X112.129 Y192.006 E21.03174
G1 X111.291 Y191.499 E21.13598
G1 X110.497 Y190.926 E21.2402
G1 X109.752 Y190.289 E21.34452
G1 X109.061 Y189.594 E21.44883
G1 X108.43 Y188.846 E21.55299
G1 X107.862 Y188.048 E21.65724
G1 X107.36 Y187.206 E21.76157
G1 X106.929 Y186.326 E21.86586
G1 X106.571 Y185.414 E21.97014
G1 X106.289 Y184.476 E22.07439
G1 X106.085 Y183.518 E22.17864
G1 X105.959 Y182.547 E22.28285
G1 X105.916 Y181.815 E22.36089
G1 X105.907 Y181.482 E22.39635
G1 X105.903 Y181.158 E22.43083
G1 X105.903 Y173.083 E23.29028
G1 X105.866 Y170.481 E23.56724
G1 X105.762 Y168.019 E23.82951
G1 X105.584 Y165.507 E24.09754
G1 X105.341 Y163.064 E24.35884
G1 X105.021 Y160.563 E24.62719
G1 X104.641 Y158.144 E24.88781
G1 X104.179 Y155.658 E25.15693
G1 X103.658 Y153.237 E25.42051
G1 X103.077 Y150.864 E25.68053
G1 X102.399 Y148.401 E25.95242
G1 X101.683 Y146.063 E26.21267
G1 X100.878 Y143.676 E26.48078
G1 X99.958 Y141.187 E26.76321
G1 X99.796 Y140.762 E26.81162
G1 X99.485 Y139.833 E26.91589
G1 X99.25 Y138.882 E27.02015
G1 X99.094 Y137.915 E27.1244
G1 X99.014 Y136.827 E27.24051
G1 X99.005 Y136.509 E27.27437
G1 X99 Y136.17 E27.31045
G1 X99.001 Y134.022 E27.53907
G1 X99.012 Y133.308 E27.61507
G1 X99.108 Y131.967 E27.75816
G1 X99.201 Y131.24 E27.83617
G1 X99.488 Y128.724 E28.10569
G1 X99.699 Y126.239 E28.37113
G1 X99.842 Y123.728 E28.63881
G1 X99.913 Y121.264 E28.90117
G1 X99.913 Y118.761 E29.16757
G1 X99.844 Y116.293 E29.43035
G1 X99.703 Y113.796 E29.69653
G1 X99.493 Y111.309 E29.96217
G1 X99.213 Y108.846 E30.22601
G1 X99.145 Y108.344 E30.27992
G1 X99.087 Y107.852 E30.33265
G1 X99.014 Y106.827 E30.44202
G1 X99.005 Y106.508 E30.47599
G1 X99 Y106.17 E30.51196
G1 X99.001 Y104.02 E30.74079
G1 X99.012 Y103.314 E30.81594
G1 X99.068 Y102.336 E30.9202
G1 X99.202 Y101.366 E31.02442
G1 X99.416 Y100.41 E31.12869
G1 X99.746 Y99.367 E31.24513
G1 X100.084 Y98.449 E31.34924
G1 X100.451 Y97.499 E31.45764
G1 X101.289 Y95.129 E31.72518
G1 X102.038 Y92.8 E31.98557
G1 X102.743 Y90.373 E32.25456
G1 X103.365 Y87.985 E32.5172
G1 X103.928 Y85.55 E32.7832
G1 X104.414 Y83.12 E33.04695
G1 X104.837 Y80.659 E33.31272
G1 X105.187 Y78.198 E33.57729
G1 X105.467 Y75.74 E33.84059
G1 X105.679 Y73.251 E34.10646
G1 X105.822 Y70.741 E34.37404
G1 X105.894 Y68.25 E34.63927
G1 X105.903 Y66.925 E34.7803
G1 X105.903 Y54.174 E36.13742
G1 X105.916 Y53.311 E36.22928
G1 X105.972 Y52.333 E36.33354
G1 X106.108 Y51.362 E36.4379
G1 X106.322 Y50.407 E36.54206
G1 X106.614 Y49.471 E36.64642
G1 X106.981 Y48.563 E36.75065
G0 F6000 X107.777 Y48.747
G1 F1200 X108.215 Y47.908 E36.85139
G1 X108.722 Y47.109 E36.9521
G1 X109.295 Y46.356 E37.05281
G1 X109.93 Y45.654 E37.15356
G1 X110.622 Y45.008 E37.25431
G1 X111.365 Y44.423 E37.35496
G1 X112.156 Y43.903 E37.45571
G1 X112.987 Y43.451 E37.5564
G1 X113.854 Y43.071 E37.65715
G1 X114.75 Y42.765 E37.75792
G1 X115.668 Y42.537 E37.85859
G1 X116.602 Y42.386 E37.95929
G1 X117.598 Y42.313 E38.06558
G1 X117.917 Y42.304 E38.09955
G1 X118.233 Y42.3 E38.13318
G1 X123.293 Y42.3 E38.67173
G1 X124.151 Y42.311 E38.76306
G1 X125.096 Y42.365 E38.8638
G1 X126.033 Y42.498 E38.96453
G1 X126.956 Y42.709 E39.0653
G1 X127.857 Y42.998 E39.16601
G1 X128.73 Y43.362 E39.26667
G1 X129.57 Y43.799 E39.36745
G1 X130.37 Y44.304 E39.46814
G1 X131.125 Y44.876 E39.56896
G1 X131.828 Y45.509 E39.66964
G1 X132.475 Y46.199 E39.77031
G1 X133.062 Y46.941 E39.87101
G1 X133.585 Y47.73 E39.97176
G1 X134.038 Y48.561 E40.07249
G1 X134.42 Y49.427 E40.17323
G1 X134.728 Y50.322 E40.27397
G1 X134.958 Y51.24 E40.3747
G1 X135.111 Y52.174 E40.47543
G1 X135.187 Y53.195 E40.5844
G1 X135.196 Y53.515 E40.61847
G1 X135.2 Y53.83 E40.652
G1 X135.199 Y180.903 E54.17669
G1 X135.19 Y181.63 E54.25407
G1 X135.138 Y182.575 E54.3548
G1 X135.007 Y183.512 E54.4555
G1 X134.797 Y184.435 E54.55625
G1 X134.51 Y185.336 E54.65689
G1 X134.148 Y186.211 E54.75767
G1 X133.713 Y187.051 E54.85835
G1 X133.209 Y187.852 E54.95908
G1 X132.639 Y188.608 E55.05985
G1 X132.008 Y189.312 E55.16047
G1 X131.319 Y189.961 E55.26121
G1 X130.577 Y190.55 E55.36204
G1 X129.789 Y191.073 E55.4627
G1 X128.96 Y191.529 E55.5634
G1 X128.094 Y191.912 E55.66418
G1 X127.2 Y192.221 E55.76486
G1 X126.283 Y192.454 E55.86556
G1 X125.349 Y192.608 E55.96631
G1 X124.305 Y192.687 E56.07774
G1 X123.984 Y192.696 E56.11192
G1 X123.67 Y192.7 E56.14534
G1 X118.466 Y192.699 E56.69921
G1 X117.768 Y192.69 E56.77351
G1 X116.823 Y192.638 E56.87424
G1 X115.886 Y192.506 E56.97495
G1 X114.963 Y192.296 E57.0757
G1 X114.061 Y192.008 E57.17648
G1 X113.187 Y191.646 E57.27716
G1 X112.347 Y191.21 E57.37789
G1 X111.546 Y190.706 E57.47862
G1 X110.791 Y190.136 E57.5793
G1 X110.086 Y189.504 E57.68007
G1 X109.438 Y188.814 E57.78082
G1 X108.85 Y188.073 E57.8815
G1 X108.327 Y187.284 E57.98225
G1 X107.872 Y186.454 E58.08299
G1 X107.489 Y185.589 E58.18367
G1 X107.18 Y184.694 E58.28445
G1 X106.948 Y183.777 E58.38512
G1 X106.794 Y182.843 E58.48587
G1 X106.716 Y181.794 E58.59783
G1 X106.707 Y181.461 E58.63328
G1 X106.703 Y181.158 E58.66554
G1 X106.703 Y173.071 E59.52625
G1 X106.666 Y170.472 E59.8029
G1 X106.56 Y167.962 E60.07028
G1 X106.381 Y165.444 E60.33896
G1 X106.134 Y162.953 E60.60538
G1 X105.818 Y160.479 E60.87083
G1 X105.424 Y157.975 E61.14062
G1 X104.969 Y155.527 E61.40563
G1 X104.437 Y153.056 E61.67465
G1 X103.851 Y150.663 E61.93687
G1 X103.175 Y148.207 E62.20799
G1 X102.433 Y145.783 E62.4778
G1 X101.638 Y143.428 E62.74234
G1 X100.666 Y140.797 E63.04086
G1 X100.544 Y140.477 E63.07731
G1 X100.244 Y139.579 E63.17808
G1 X100.022 Y138.66 E63.27871
G1 X99.877 Y137.724 E63.37951
G1 X99.813 Y136.805 E63.47756
G1 X99.804 Y136.487 E63.51142
G1 X99.8 Y136.17 E63.54516
G1 X99.801 Y134.034 E63.7725
G1 X99.812 Y133.32 E63.84851
G1 X99.902 Y132.069 E63.982
G1 X99.992 Y131.367 E64.05732
G1 X100.283 Y128.81 E64.33123
G1 X100.498 Y126.283 E64.60115
G1 X100.642 Y123.76 E64.87012
G1 X100.713 Y121.287 E65.13344
G1 X100.713 Y118.775 E65.40079
G1 X100.642 Y116.226 E65.6722
G1 X100.502 Y113.752 E65.93593
G1 X100.291 Y111.255 E66.20264
G1 X100 Y108.696 E66.47676
G1 X99.909 Y108.006 E66.55083
G1 X99.881 Y107.761 E66.57708
G1 X99.813 Y106.805 E66.67908
G1 X99.804 Y106.486 E66.71305
G1 X99.8 Y106.17 E66.74668
G1 X99.801 Y104.033 E66.97413
G1 X99.812 Y103.327 E67.04928
G1 X99.867 Y102.382 E67.15003
G1 X100.001 Y101.445 E67.25077
G1 X100.214 Y100.523 E67.35149
G1 X100.497 Y99.642 E67.44997
G1 X100.766 Y98.909 E67.53307
G1 X101.2 Y97.78 E67.66181
G1 X102.035 Y95.418 E67.92845
G1 X102.805 Y93.025 E68.196
G1 X103.516 Y90.579 E68.46711
G1 X104.139 Y88.19 E68.72988
G1 X104.717 Y85.685 E69.0035
G1 X105.201 Y83.269 E69.26575
G1 X105.624 Y80.804 E69.53194
G1 X105.982 Y78.293 E69.8019
G1 X106.263 Y75.825 E70.06627
G1 X106.479 Y73.293 E70.33673
G1 X106.622 Y70.775 E70.60516
G1 X106.694 Y68.279 E70.87093
G1 X106.703 Y66.93 E71.01451
G1 X106.703 Y54.174 E72.37216
G1 X106.716 Y53.324 E72.46264
G1 X106.771 Y52.379 E72.56339
G1 X106.906 Y51.442 E72.66414
G1 X107.12 Y50.52 E72.76488
G1 X107.411 Y49.62 E72.86556
G1 X107.777 Y48.747 E72.96631
G0 F6000 X108.573 Y48.938
G1 F1200 X109.009 Y48.137 E73.06337
G1 X109.514 Y47.377 E73.16049
G1 X110.083 Y46.665 E73.25749
G1 X110.713 Y46.005 E73.3546
G1 X111.398 Y45.403 E73.45166
G1 X112.133 Y44.864 E73.54867
G1 X112.912 Y44.391 E73.64567
G1 X113.73 Y43.988 E73.74272
G1 X114.581 Y43.658 E73.83987
G1 X115.456 Y43.404 E73.93684
G1 X116.351 Y43.227 E74.03394
G1 X117.621 Y43.113 E74.16966
G1 X117.94 Y43.104 E74.20362
G1 X118.233 Y43.1 E74.23481
G1 X123.293 Y43.1 E74.77336
G1 X124.14 Y43.111 E74.86351
G1 X125.05 Y43.164 E74.96053
G1 X125.953 Y43.297 E75.05768
G1 X126.84 Y43.508 E75.15472
G1 X127.705 Y43.796 E75.25175
G1 X128.542 Y44.158 E75.34881
G1 X129.343 Y44.593 E75.44582
G1 X130.104 Y45.096 E75.54291
G1 X130.817 Y45.664 E75.63993
G1 X131.479 Y46.292 E75.73705
G1 X132.082 Y46.976 E75.8341
G1 X132.623 Y47.71 E75.93115
G1 X133.098 Y48.488 E76.02817
G1 X133.503 Y49.305 E76.12522
G1 X133.835 Y50.155 E76.22234
G1 X134.091 Y51.03 E76.31938
G1 X134.269 Y51.924 E76.41639
G1 X134.387 Y53.218 E76.55469
G1 X134.396 Y53.538 E76.58876
G1 X134.4 Y53.83 E76.61984
G1 X134.399 Y180.893 E90.14347
G1 X134.39 Y181.62 E90.22085
G1 X134.339 Y182.53 E90.31785
G1 X134.208 Y183.433 E90.41497
G1 X133.999 Y184.32 E90.51196
G1 X133.712 Y185.186 E90.60906
G1 X133.351 Y186.023 E90.70608
G1 X132.918 Y186.826 E90.80317
G1 X132.417 Y187.588 E90.90024
G1 X131.85 Y188.302 E90.99727
G1 X131.223 Y188.964 E91.09432
G1 X130.541 Y189.569 E91.19135
G1 X129.808 Y190.112 E91.28844
G1 X129.03 Y190.588 E91.38551
G1 X128.214 Y190.995 E91.48257
G1 X127.365 Y191.328 E91.57963
G1 X126.491 Y191.586 E91.67662
G1 X125.597 Y191.766 E91.77368
G1 X124.282 Y191.887 E91.91423
G1 X123.961 Y191.896 E91.94841
G1 X123.67 Y191.9 E91.97938
G1 X118.476 Y191.899 E92.53219
G1 X117.778 Y191.89 E92.60649
G1 X116.867 Y191.838 E92.70361
G1 X115.965 Y191.707 E92.80062
G1 X115.078 Y191.497 E92.89763
G1 X114.212 Y191.211 E92.9947
G1 X113.375 Y190.849 E93.09176
G1 X112.572 Y190.416 E93.18886
G1 X111.811 Y189.914 E93.28589
G1 X111.097 Y189.347 E93.38293
G1 X110.435 Y188.72 E93.47997
G1 X109.83 Y188.037 E93.57708
G1 X109.288 Y187.304 E93.67411
G1 X108.812 Y186.526 E93.77118
G1 X108.406 Y185.709 E93.86828
G1 X108.073 Y184.86 E93.96534
G1 X107.816 Y183.985 E94.06241
G1 X107.636 Y183.091 E94.15947
G1 X107.516 Y181.772 E94.30043
G1 X107.507 Y181.439 E94.33589
G1 X107.503 Y181.158 E94.3658
G1 X107.503 Y173.06 E95.22769
G1 X107.466 Y170.461 E95.50433
G1 X107.358 Y167.906 E95.77651
G1 X107.179 Y165.38 E96.04603
G1 X106.931 Y162.88 E96.31342
G1 X106.608 Y160.357 E96.58414
G1 X106.214 Y157.848 E96.85445
G1 X105.751 Y155.356 E97.12422
G1 X105.215 Y152.866 E97.39531
G1 X104.622 Y150.446 E97.66049
G1 X103.95 Y148.003 E97.93017
G1 X103.194 Y145.536 E98.20479
G1 X102.395 Y143.167 E98.47088
G1 X101.416 Y140.519 E98.77136
G1 X101.291 Y140.192 E98.80862
G1 X101.004 Y139.327 E98.90562
G1 X100.794 Y138.439 E99.00274
G1 X100.662 Y137.537 E99.09976
G1 X100.613 Y136.782 E99.18029
G1 X100.604 Y136.464 E99.21414
G1 X100.6 Y136.17 E99.24544
G1 X100.601 Y134.047 E99.47139
G1 X100.612 Y133.333 E99.5474
G1 X100.695 Y132.17 E99.67149
G1 X100.795 Y131.39 E99.75519
G1 X101.078 Y128.899 E100.02202
G1 X101.298 Y126.324 E100.29708
G1 X101.44 Y123.829 E100.56306
G1 X101.513 Y121.275 E100.835
G1 X101.513 Y118.752 E101.10353
G1 X101.443 Y116.23 E101.37205
G1 X101.299 Y113.677 E101.64421
G1 X101.086 Y111.166 E101.91242
G1 X100.794 Y108.592 E102.18813
G1 X100.731 Y108.129 E102.23786
G1 X100.676 Y107.67 E102.28707
G1 X100.613 Y106.782 E102.38182
G1 X100.604 Y106.463 E102.41578
G1 X100.6 Y106.17 E102.44697
G1 X100.601 Y104.045 E102.67314
G1 X100.612 Y103.339 E102.74829
G1 X100.666 Y102.429 E102.84531
G1 X100.8 Y101.527 E102.94237
G1 X101.012 Y100.64 E103.03943
G1 X101.248 Y99.918 E103.12028
G1 X101.577 Y99.025 E103.22157
G1 X101.953 Y98.05 E103.33279
G1 X102.8 Y95.656 E103.60306
G1 X103.573 Y93.251 E103.87193
G1 X104.278 Y90.826 E104.14072
G1 X104.923 Y88.352 E104.41283
G1 X105.493 Y85.884 E104.68242
G1 X105.987 Y83.412 E104.95072
G1 X106.416 Y80.915 E105.22038
G1 X106.776 Y78.389 E105.49194
G1 X107.062 Y75.88 E105.76071
G1 X107.276 Y73.372 E106.02862
G1 X107.42 Y70.842 E106.29833
G1 X107.494 Y68.261 E106.57314
G1 X107.503 Y66.936 E106.71417
G1 X107.504 Y54.002 E108.09076
G1 X107.515 Y53.337 E108.16155
G1 X107.57 Y52.427 E108.25858
G1 X107.705 Y51.525 E108.35565
G1 X107.918 Y50.638 E108.45274
G1 X108.208 Y49.774 E108.54974
G1 X108.573 Y48.938 E108.64683
G1 F2700 E103.64683
;MESH:Aspire V Nitro CD Holder Replacement v1.stl
G0 F6000 X117.238 Y55.11
G0 X119.513 Y55.11
G0 X119.103 Y180.3
;TYPE:WALL-INNER
G1 F2700 E108.64683
G1 F1200 X119.103 Y135.3 E113.43629
G1 X112.2 Y135.3 E114.17099
G1 X112.2 Y134.7 E114.23485
G1 X119.103 Y134.7 E114.78657
G1 X119.103 Y105.3 E117.91568
G1 X112.2 Y105.3 E118.65038
G1 X112.2 Y104.7 E118.71424
G1 X119.103 Y104.7 E119.26596
G1 X119.103 Y54.7 E124.58758
G1 X122.8 Y54.7 E124.98106
G1 X122.8 Y180.3 E138.34898
G1 X119.103 Y180.3 E138.74246
G0 F6000 X118.773 Y180.63
G0 X118.303 Y181.1
;TYPE:WALL-OUTER
G1 F1200 X118.303 Y136.1 E143.53192
G1 X111.4 Y136.1 E144.26662
G1 X111.4 Y133.9 E144.50077
G1 X118.303 Y133.9 E145.23547
G1 X118.303 Y106.1 E148.1943
G1 X111.4 Y106.1 E148.929
G1 X111.4 Y103.9 E149.16315
G1 X118.303 Y103.9 E149.89785
G1 X118.303 Y53.9 E155.21948
G1 X123.6 Y53.9 E155.78325
G1 X123.6 Y181.1 E169.32145
G1 X118.303 Y181.1 E169.88523
G0 F6000 X118.773 Y180.63
G0 X119.413 Y179.51
G0 X119.893 Y179.51
;TYPE:SKIN
G1 F1200 X119.893 Y55.49 E183.08498
G1 X122.01 Y55.49 E183.31029
G1 X122.01 Y179.51 E196.51004
G1 X119.893 Y179.51 E196.73536
G0 F6000 X120.358 Y179.189
G1 F1200 X120.212 Y179.043 E196.75734
G0 F6000 X119.413 Y179.043
G0 X119.413 Y177.912
G0 X120.212 Y177.912
G1 F1200 X121.489 Y179.189 E196.94955
G0 F6000 X121.69 Y178.258
G1 F1200 X120.212 Y176.78 E197.17201
G0 F6000 X119.413 Y176.78
G0 X119.413 Y175.649
G0 X120.212 Y175.649
G1 F1200 X121.69 Y177.127 E197.39448
G0 F6000 X122.49 Y177.127
G0 X122.49 Y175.996
G0 X121.69 Y175.996
G1 F1200 X120.212 Y174.518 E197.61695
G0 F6000 X119.413 Y174.518
G0 X119.413 Y173.386
G0 X120.212 Y173.386
G1 F1200 X121.69 Y174.864 E197.83941
G0 F6000 X122.49 Y174.864
